gama.ui.shared/icons_svg/dark/generic/menu.copy.svg

<svg height="25" viewBox="-778.774 -3167.932 25 25" width="25" xmlns="http://www.w3.org/2000/svg"><g fill="none"><path d="m-774.4341-3167.4315h16.32c2.1208 0 3.84 1.7192 3.84 3.84v16.32c0 2.1208-1.7192 3.84-3.84 3.84h-16.32c-2.1208 0-3.84-1.7192-3.84-3.84v-16.32c0-2.1208 1.7192-3.84 3.84-3.84z" fill="#666"/><path d="m-774.4341-3167.4315h16.32c2.1208 0 3.84 1.7192 3.84 3.84v16.32c0 2.1208-1.7192 3.84-3.84 3.84h-16.32c-2.1208 0-3.84-1.7192-3.84-3.84v-16.32c0-2.1208 1.7192-3.84 3.84-3.84z" stroke="#fff" stroke-linecap="round" stroke-linejoin="round" stroke-width=".25"/><path d="m-769.82965-3159.876v.889h-1.33335c-.7378 0-1.3333.5955-1.3333 1.3333v8c0 .7377.5955 1.3333 1.3333 1.3333h6.2222c.7378 0 1.3334-.5956 1.3334-1.3333v-1.3333h.8889v1.3333c0 1.2267-.9956 2.2222-2.2223 2.2222h-6.2222c-1.22665 0-2.2222-.9955-2.2222-2.2222v-8c0-1.2267.99555-2.2223 2.2222-2.2223zm7.11115-2.6666h-4.8889c-.7378 0-1.3334.5956-1.3334 1.3333v8c0 .7378.5956 1.3333 1.3334 1.3333h6.2222c.7378 0 1.3333-.5955 1.3333-1.3333v-6.6667h-2.2222c-.2489 0-.4444-.1955-.4444-.4444zm3.5555 2.2489v7.0844c0 1.2267-.9955 2.2223-2.2222 2.2223h-6.2222c-1.2267 0-2.22225-.9956-2.22225-2.2223v-8c0-1.2267.99555-2.2222 2.22225-2.2222h5.3066c.1156 0 .24.0355.3378.1335l2.6667 2.6665c.0978.0978.1333.2222.1333.3378zm-2.66665-.4713h1.14665l-1.14665-1.1465zm-4.88885 6.2224c-.2489 0-.4445-.1954-.4445-.4444s.1956-.4445.4445-.4445h1.7777c.2489 0 .4445.1955.4445.4445s-.1956.4444-.4445.4444zm0-1.7778c-.2489 0-.4445-.1956-.4445-.4446 0-.2487.1956-.4443.4445-.4443h4.4444c.2489 0 .44445.1956.44445.4443 0 .249-.19555.4446-.44445.4446zm0-1.7776c-.2489 0-.4445-.1957-.4445-.4446s.1956-.4444.4445-.4444h4.4444c.2489 0 .44445.1955.44445.4444s-.19555.4446-.44445.4446z" fill="#c0e0ff"/></g></svg>

<?xml version="1.0" encoding="UTF-8" standalone="no"?>
<!DOCTYPE svg PUBLIC "-//W3C//DTD SVG 1.1//EN" "http://www.w3.org/Graphics/SVG/1.1/DTD/svg11.dtd">
<svg xmlns="http://www.w3.org/2000/svg" xmlns:xl="http://www.w3.org/1999/xlink" version="1.1" xmlns:dc="http://purl.org/dc/elements/1.1/" viewBox="-778.7741 -3167.9315 25 25" width="25" height="25">
  <defs/>
  <g id="SOURCES" stroke-opacity="1" fill="none" stroke="none" fill-opacity="1" stroke-dasharray="none">
    <title>SOURCES</title>
    <g id="SOURCES_Dark">
      <title>Dark</title>
      <g id="Graphic_11330">
        <path d="M -774.4341 -3167.4315 L -758.1141 -3167.4315 C -755.9933 -3167.4315 -754.2741 -3165.7123 -754.2741 -3163.5915 L -754.2741 -3147.2715 C -754.2741 -3145.1507 -755.9933 -3143.4315 -758.1141 -3143.4315 L -774.4341 -3143.4315 C -776.5549 -3143.4315 -778.2741 -3145.1507 -778.2741 -3147.2715 L -778.2741 -3163.5915 C -778.2741 -3165.7123 -776.5549 -3167.4315 -774.4341 -3167.4315 Z" fill="#666"/>
        <path d="M -774.4341 -3167.4315 L -758.1141 -3167.4315 C -755.9933 -3167.4315 -754.2741 -3165.7123 -754.2741 -3163.5915 L -754.2741 -3147.2715 C -754.2741 -3145.1507 -755.9933 -3143.4315 -758.1141 -3143.4315 L -774.4341 -3143.4315 C -776.5549 -3143.4315 -778.2741 -3145.1507 -778.2741 -3147.2715 L -778.2741 -3163.5915 C -778.2741 -3165.7123 -776.5549 -3167.4315 -774.4341 -3167.4315 Z" stroke="white" stroke-linecap="round" stroke-linejoin="round" stroke-width=".25"/>
      </g>
      <g id="Graphic_11329">
        <path d="M -769.82965 -3159.876 L -769.82965 -3158.987 L -771.163 -3158.987 C -771.9008 -3158.987 -772.4963 -3158.3915 -772.4963 -3157.6537 L -772.4963 -3149.6537 C -772.4963 -3148.916 -771.9008 -3148.3204 -771.163 -3148.3204 L -764.9408 -3148.3204 C -764.203 -3148.3204 -763.6074 -3148.916 -763.6074 -3149.6537 L -763.6074 -3150.987 L -762.7185 -3150.987 L -762.7185 -3149.6537 C -762.7185 -3148.427 -763.7141 -3147.4315 -764.9408 -3147.4315 L -771.163 -3147.4315 C -772.38965 -3147.4315 -773.3852 -3148.427 -773.3852 -3149.6537 L -773.3852 -3157.6537 C -773.3852 -3158.8804 -772.38965 -3159.876 -771.163 -3159.876 Z M -762.7185 -3162.5426 L -767.6074 -3162.5426 C -768.3452 -3162.5426 -768.9408 -3161.947 -768.9408 -3161.2093 L -768.9408 -3153.2093 C -768.9408 -3152.4715 -768.3452 -3151.876 -767.6074 -3151.876 L -761.3852 -3151.876 C -760.6474 -3151.876 -760.0519 -3152.4715 -760.0519 -3153.2093 L -760.0519 -3159.876 L -762.2741 -3159.876 C -762.523 -3159.876 -762.7185 -3160.0715 -762.7185 -3160.3204 Z M -759.163 -3160.2937 L -759.163 -3153.2093 C -759.163 -3151.9826 -760.1585 -3150.987 -761.3852 -3150.987 L -767.6074 -3150.987 C -768.8341 -3150.987 -769.82965 -3151.9826 -769.82965 -3153.2093 L -769.82965 -3161.2093 C -769.82965 -3162.436 -768.8341 -3163.4315 -767.6074 -3163.4315 L -762.3008 -3163.4315 C -762.1852 -3163.4315 -762.0608 -3163.396 -761.963 -3163.298 L -759.2963 -3160.6315 C -759.1985 -3160.5337 -759.163 -3160.4093 -759.163 -3160.2937 Z M -761.82965 -3160.765 L -760.683 -3160.765 L -761.82965 -3161.9115 Z M -766.7185 -3154.5426 C -766.9674 -3154.5426 -767.163 -3154.738 -767.163 -3154.987 C -767.163 -3155.236 -766.9674 -3155.4315 -766.7185 -3155.4315 L -764.9408 -3155.4315 C -764.6919 -3155.4315 -764.4963 -3155.236 -764.4963 -3154.987 C -764.4963 -3154.738 -764.6919 -3154.5426 -764.9408 -3154.5426 Z M -766.7185 -3156.3204 C -766.9674 -3156.3204 -767.163 -3156.516 -767.163 -3156.765 C -767.163 -3157.0137 -766.9674 -3157.2093 -766.7185 -3157.2093 L -762.2741 -3157.2093 C -762.0252 -3157.2093 -761.82965 -3157.0137 -761.82965 -3156.765 C -761.82965 -3156.516 -762.0252 -3156.3204 -762.2741 -3156.3204 Z M -766.7185 -3158.098 C -766.9674 -3158.098 -767.163 -3158.2937 -767.163 -3158.5426 C -767.163 -3158.7915 -766.9674 -3158.987 -766.7185 -3158.987 L -762.2741 -3158.987 C -762.0252 -3158.987 -761.82965 -3158.7915 -761.82965 -3158.5426 C -761.82965 -3158.2937 -762.0252 -3158.098 -762.2741 -3158.098 Z" fill="#c0e0ff"/>
      </g>
    </g>
  </g>
</svg>
